packages/bezier-icons/icons/heading-4.svg

<svg width="24" height="24" viewBox="0 0 24 24" fill="none" xmlns="http://www.w3.org/2000/svg">
<path fill-rule="evenodd" clip-rule="evenodd" d="M4.5 5C4.22386 5 4 5.22386 4 5.5V17.5C4 17.7761 4.22386 18 4.5 18H6C6.27614 18 6.5 17.7761 6.5 17.5V13H11.5V17.5C11.5 17.7761 11.7239 18 12 18H13.5C13.7761 18 14 17.7761 14 17.5V5.5C14 5.22386 13.7761 5 13.5 5H12C11.7239 5 11.5 5.22386 11.5 5.5V10.5H6.5V5.5C6.5 5.22386 6.27614 5 6 5H4.5ZM20.5 12.3833C20.5 11.1229 18.846 10.6547 18.1854 11.7282L14.8359 17.1711C14.3439 17.9706 14.9191 19 15.8579 19H18.5V20.5C18.5 20.7762 18.7238 21 19 21H20C20.2761 21 20.5 20.7762 20.5 20.5V19H21.5C21.7761 19 22 18.7762 22 18.5V17.5C22 17.2239 21.7761 17 21.5 17H20.5V12.3833ZM18.5 14.8V17H17.2L18.5 14.8Z" fill="#313234"/>
</svg>

<svg xmlns="http://www.w3.org/2000/svg" width="24" height="24" fill="none" viewBox="0 0 24 24"><path fill="#313234" fill-rule="evenodd" d="M4.5 5a.5.5 0 0 0-.5.5v12a.5.5 0 0 0 .5.5H6a.5.5 0 0 0 .5-.5V13h5v4.5a.5.5 0 0 0 .5.5h1.5a.5.5 0 0 0 .5-.5v-12a.5.5 0 0 0-.5-.5H12a.5.5 0 0 0-.5.5v5h-5v-5A.5.5 0 0 0 6 5zm16 7.383c0-1.26-1.654-1.728-2.315-.655l-3.35 5.443A1.2 1.2 0 0 0 15.859 19H18.5v1.5a.5.5 0 0 0 .5.5h1a.5.5 0 0 0 .5-.5V19h1a.5.5 0 0 0 .5-.5v-1a.5.5 0 0 0-.5-.5h-1zm-2 2.417V17h-1.3z" clip-rule="evenodd"/></svg>
